assets/img/icons/duotone-icons/Communication/Chat#4.svg

<?xml version="1.0" encoding="UTF-8"?>
<svg width="24px" height="24px" viewBox="0 0 24 24" version="1.1" xmlns="http://www.w3.org/2000/svg" xmlns:xlink="http://www.w3.org/1999/xlink">
    <!-- Generator: Sketch 52.2 (67145) - http://www.bohemiancoding.com/sketch -->
    <title>Stockholm-icons / Communication / Chat#4</title>
    <desc>Created with Sketch.</desc>
    <g id="Stockholm-icons-/-Communication-/-Chat#4" stroke="none" stroke-width="1" fill="none" fill-rule="evenodd">
        <rect id="bound" x="0" y="0" width="24" height="24"></rect>
        <path d="M21.9999843,15.009808 L22.0249378,15 L22.0249378,19.5857864 C22.0249378,20.1380712 21.5772226,20.5857864 21.0249378,20.5857864 C20.7597213,20.5857864 20.5053674,20.4804296 20.317831,20.2928932 L18.0249378,18 L5,18 C3.34314575,18 2,16.6568542 2,15 L2,6 C2,4.34314575 3.34314575,3 5,3 L19,3 C20.6568542,3 22,4.34314575 22,6 L22,15 C22,15.0032706 21.9999948,15.0065399 21.9999843,15.009808 Z M6.16794971,10.5547002 C7.67758127,12.8191475 9.64566871,14 12,14 C14.3543313,14 16.3224187,12.8191475 17.8320503,10.5547002 C18.1384028,10.0951715 18.0142289,9.47430216 17.5547002,9.16794971 C17.0951715,8.86159725 16.4743022,8.98577112 16.1679497,9.4452998 C15.0109146,11.1808525 13.6456687,12 12,12 C10.3543313,12 8.9890854,11.1808525 7.83205029,9.4452998 C7.52569784,8.98577112 6.90482849,8.86159725 6.4452998,9.16794971 C5.98577112,9.47430216 5.86159725,10.0951715 6.16794971,10.5547002 Z" id="Combined-Shape" fill="#335EEA"></path>
    </g>
</svg>

<svg width="24" height="24" viewBox="0 0 24 24" xmlns="http://www.w3.org/2000/svg"><g fill="none" fill-rule="evenodd"><path d="M0 0h24v24H0z"/><path d="M22 15.01l.025-.01v4.586a1 1 0 01-1.707.707L18.025 18H5a3 3 0 01-3-3V6a3 3 0 013-3h14a3 3 0 013 3v9.01zM6.168 10.555C7.678 12.819 9.646 14 12 14c2.354 0 4.322-1.18 5.832-3.445a1 1 0 10-1.664-1.11C15.01 11.181 13.646 12 12 12c-1.646 0-3.01-.82-4.168-2.555a1 1 0 00-1.664 1.11z" fill="#335EEA"/></g></svg>
